X:1
T:Emily
C:Les Ttes Raides, fichier abc : Bernard Loffet
L:1/8
Q:440
M:3/4
K:C
 z2 c2 d2 |: [e2A,,2] A,2 A,2 | A,,2 A,2 [c2A,2] | [e2A,,2] A,2 A,2 | A,,2 A,2 [f2A,2] | \
 [d2D,,2] D,2 D,2 | D,,2 D,2 [c2D,2] | [d2D,,2] D,2 D,2 | D,,2 [A2D,2] [B2D,2] | [c2A,,2] A,2 A,2 | \
 A,,2 A,2 [d2A,2] | [c2A,,2] A,2 A,2 | A,,2 [B2A,2] [A2A,2] | [B2E,,2] E,2 E,2 | E,,2 E,2 [c2E,2] | \
|1 [B2E,,2] E,2 E,2 | E,,2 [c2E,2] [d2E,2] :|2 [B2E,,2] E,2 E,2 | E,,2 E,2 E,2 | \
W:Created with TablEdit http://www.tabledit.com/ by Bernard Loffet
